resources/svg/major-card-reader-chip.svg

<svg xmlns="http://www.w3.org/2000/svg" viewBox="0 0 20 20" fill="currentColor"><path d="M14.5 0a1.5 1.5 0 0 1 1.5 1.5v7.5h-3v-9h1.5zm-3.5 0h-5.5a1.5 1.5 0 0 0-1.5 1.5v7.5h7v-9zm-7.5 11a1.5 1.5 0 0 0-1.5 1.5v5.5h-1a1 1 0 1 0 0 2h18a1 1 0 1 0 0-2h-1v-5.5a1.5 1.5 0 0 0-1.5-1.5h-13z"/></svg>

<svg xmlns="http://www.w3.org/2000/svg" viewBox="0 0 20 20" fill="currentColor"><path d="M14.5 0A1.5 1.5 0 0 1 16 1.5V9h-3V0h1.5zM11 0H5.5A1.5 1.5 0 0 0 4 1.5V9h7V0zM3.5 11A1.5 1.5 0 0 0 2 12.5V18H1a1 1 0 1 0 0 2h18a1 1 0 1 0 0-2h-1v-5.5a1.5 1.5 0 0 0-1.5-1.5h-13z"/></svg>
